X: 1
T: String Quartet in F Major opus 50 no 5 mvt 3
C: Franz Joseph Haydn
%%abc-version 2.0
%%abcx-abcm2ps-target-version 5.9.1 (29 Sep 2008)
%%abc-creator hum2abc beta
%%abcx-conversion-date 2021/02/14 14:38:34
%%abc-copyright Copyright (c) 1994, 2000 Center for Computer Assisted Research in the Humanities
%%abc-edited-by Frances Bennion
%%abcx-initial-encoding-date 1997/04/15
%%gracespace 0 6 6
%%humdrum-veritas 735529538
%%humdrum-veritas-data 1496153576
%%linebreak <none>
%%barnumbers 0
L: 1/4
M: 3/4
N: Derived from op50n5-03.krn
Q: "Menuetto"
%%staves [1 2 3 4]
V: 1
V: 2
V: 3 clef=alto
V: 4 clef=bass
K: F
[V:1]z >>c c [I:setbarnb1] |
[V:2]z >>z z |
[V:3]z >>z z |
[V:4]z >>z z |
[V:1]d =B c |
[V:2]z3 |
[V:3]z3 |
[V:4]z3 |
[V:1]B G E |
[V:2]z3 |
[V:3]z3 |
[V:4]z3 |
[V:1]D3 |
[V:2]z B, B, |
[V:3]z G, G, |
[V:4]z E, E, |
[V:1]C z/>C/ C |
[V:2]B, z2 |
[V:3]G, z2 |
[V:4]E, z2 |
[V:1]F z/>C/ C |
[V:2]z A, A, |
[V:3]z C C |
[V:4]z F, F, |
[V:1]G z/>C/ C |
[V:2]z G, G, |
[V:3]z C C |
[V:4]z E, E, |
[V:1]A d =B |
[V:2]z F D |
[V:3]C A F |
[V:4]F, D, G, |
[V:1]c z/>c/ c |
[V:2]E z2 |
[V:3]E z2 |
[V:4]C, C,,/z3/ |
[V:1]f e f |
[V:2]c B A |
[V:3]A G F |
[V:4]z3 |
[V:1]^f g a |
[V:2]c3 |
[V:3]E2 F |
[V:4]z3 |
[V:1]c'3 |
[V:2]F3- |
[V:3]D3- |
[V:4]z3 |
[V:1]b z/>a/ a |
[V:2]F2 E |
[V:3]D2 C |
[V:4]z3 |
[V:1]d' z/>g/ g |
[V:2]D d d |
[V:3]B, B B |
[V:4]z3 |
[V:1]c' z/>f/ f |
[V:2]z c c |
[V:3]z A A |
[V:4]z3 |
[V:1]e b a |
[V:2]B G F |
[V:3]G E F |
[V:4]z3 |
[V:1]g z/>c'/ c' |
[V:2]E F G |
[V:3]C D E |
[V:4]C,3- |
[V:1]_a e f |
[V:2]_A B A |
[V:3]F G F |
[V:4]C,3- |
[V:1]c z/>e/ e |
[V:2]G c B |
[V:3]E E G |
[V:4]C,3- |
[V:1]f g _a |
[V:2]_A G F |
[V:3]C2 =B, |
[V:4]C,3- |
[V:1]g z/>g/ g |
[V:2]E C E |
[V:3]C z2 |
[V:4]C,3- |
[V:1]_a z/>=a/ a |
[V:2]F C ^F |
[V:3]z3 |
[V:4]C,3- |
[V:1]b z/>=b/ b |
[V:2]G C ^G |
[V:3]z3 |
[V:4]C,3- |
[V:1]c' z/>^c'/ c' |
[V:2]A C A |
[V:3]z2 ^c |
[V:4]C,3- |
[V:1]d' =b c' |
[V:2]B ^G A |
[V:3]d =B c |
[V:4]C,3- |
[V:1]b g e |
[V:2]E3- |
[V:3]G2 A |
[V:4]C,3- |
[V:1]d3 |
[V:2]E2 F |
[V:3]B3- |
[V:4]C,2 D, |
[V:1]c z/>c/ c |
[V:2]G z2 |
[V:3]B z2 |
[V:4]E, z2 |
[V:1]f z/>f/ f |
[V:2]z A A |
[V:3]z C C |
[V:4]z F, F, |
[V:1]a z/>f/ f |
[V:2]z c c |
[V:3]z A A |
[V:4]z _E, E, |
[V:1]b z/>d'/ d' |
[V:2]z B B |
[V:3]z F F |
[V:4]z D, D, |
[V:1]f' >d' b/g/ |
[V:2]z F G |
[V:3]z D D |
[V:4]z B,, B,, |
[V:1]f2 g |
[V:2]A2 B |
[V:3]C2 E |
[V:4]C,3 |
[V:1]f z/>c/ c |
[V:2]A z7// F// |
[V:3]F z2 |
[V:4]F, F,, z |
[V:1]d =B c |
[V:2]F G E |
[V:3]z3 |
[V:4]z3 |
[V:1]A B/>^G/ G |
[V:2]F D E |
[V:3]z3 |
[V:4]z3 |
[V:1]A ^F G |
[V:2]^C D B, |
[V:3]z3 |
[V:4]z3 |
[V:1]E F B |
[V:2]C A, G |
[V:3]z2 C |
[V:4]z2 E, |
[V:1]A z d |
[V:2]F z B |
[V:3]C z F |
[V:4]F, z B,, |
[V:1]z c z |
[V:2]z A z |
[V:3]z F z |
[V:4]z C, z |
[V:1][BeG] z [fAF] |
[V:2][BeG] z [fAF] |
[V:3]C z F, |
[V:4]C, z F,, |
[V:1]z >>c c |
[V:2]z >>c c |
[V:3]z >>c c |
[V:4]z >>C C |
[V:1]_d =B c |
[V:2]_d =B c |
[V:3]_d =B c |
[V:4]_D =B, C |
[V:1]B G E |
[V:2]B G E |
[V:3]B G E |
[V:4]B, G, E, |
[V:1]_D3 |
[V:2]_D2 B, |
[V:3]_D2 F, |
[V:4]_D,2 _D,, |
[V:1]C2 B, |
[V:2]_A,2 G, |
[V:3]_E,2 _D, |
[V:4]_E,,3 |
[V:1]_A, C _E |
[V:2]_A, z2 |
[V:3]C, z2 |
[V:4]_A,,2 z |
[V:1]_A c/z//_e// e |
[V:2]z3 |
[V:3]z3 |
[V:4]z3 |
[V:1]f d _e |
[V:2]z B B |
[V:3]z _A G |
[V:4]z3 |
[V:1]_d =B c |
[V:2]z _A G |
[V:3]z F _E |
[V:4]z3 |
[V:1]B G _A |
[V:2]z _E E |
[V:3]z B, C |
[V:4]z _D C |
[V:1]_e2 d |
[V:2]_A3 |
[V:3]F3 |
[V:4]B,3 |
[V:1]_d2 c |
[V:2]B2 _A |
[V:3]_E3 |
[V:4]G, _E, _A, |
[V:1]B _d f |
[V:2]F2 _D |
[V:3]F _D B, |
[V:4]_D,3 |
[V:1]_A2 B |
[V:2]C2 _D |
[V:3]_E2 G, |
[V:4]_E,3 |
[V:1]_A z/>_E/ E |
[V:2]C z2 |
[V:3]_A, z2 |
[V:4]_A,, z2 |
[V:1]_A G A |
[V:2]_E _D C |
[V:3]C B, _A, |
[V:4]z3 |
[V:1]c B/z//_E// E |
[V:2]_A G z |
[V:3]D, _E, z |
[V:4]D, _E, z |
[V:1]B A B |
[V:2]F _E _D |
[V:3]_D C B, |
[V:4]z3 |
[V:1]_d c/z//f// f |
[V:2]B A/z3/ |
[V:3]E, F, z |
[V:4]E, F, z |
[V:1]_g e f |
[V:2]z _d c |
[V:3]z B A |
[V:4]z3 |
[V:1]_e c _d |
[V:2]z A B |
[V:3]z _E _D |
[V:4]z F, B,, |
[V:1]c _e A |
[V:2]_G _E C |
[V:3]z _G _E |
[V:4]_E, C, F, |
[V:1]B z/>b/ b |
[V:2]_D z/>B/ B |
[V:3]_D z/>B/ B |
[V:4]B, B,,/>B,/ B, |
[V:1]_d' b g |
[V:2]_d B G |
[V:3]_d B G |
[V:4]_D B, G, |
[V:1]e c' b |
[V:2]E2 G |
[V:3]E G C |
[V:4]E, C, E, |
[V:1]b2 _a |
[V:2]G2 F |
[V:3]C _D =B, |
[V:4]F, _D, =B,, |
[V:1]g z/>c/ c |
[V:2]E z2 |
[V:3]C z2 |
[V:4]C, C,, z |
[V:1]f e f |
[V:2]c B _A |
[V:3]_A G F |
[V:4]z3 |
[V:1]_a g =a |
[V:2]c2 F |
[V:3]E2 _E |
[V:4]z3 |
[V:1]c' b c' |
[V:2]F2 c |
[V:3]_D2 F |
[V:4]z2 A, |
[V:1]_e'3 |
[V:2]c3 |
[V:3]F3- |
[V:4]B,3 |
[V:1]_d' z/>b/ b |
[V:2]B z2 |
[V:3]F z2 |
[V:4]B,, z2 |
[V:1]_d' b g |
[V:2]z2 G |
[V:3]z2 _D |
[V:4]z2 B, |
[V:1]f2 g/e/ |
[V:2]_A2 B/G/ |
[V:3]C3 |
[V:4]C3 |
[V:1]f z2 |
[V:2]F z2 |
[V:3]_A, z2 |
[V:4]F, z/>C/ C |
[V:1]z f e |
[V:2]z _A G |
[V:3]z3 |
[V:4]_D =B, C |
[V:1]z g g |
[V:2]z B B |
[V:3]z3 |
[V:4]B, G, E, |
[V:1]z b b |
[V:2]z f f |
[V:3]z B B |
[V:4]_D,3 |
[V:1]_d' >c' b |
[V:2]e3 |
[V:3]B >_A G |
[V:4]C,3 |
[V:1]_a b g |
[V:2]f g e |
[V:3]F _D B, |
[V:4]_D, B,, C, |
[V:1]f z2 |]
[V:2]f z2 |]
[V:3]_A, z2 |]
[V:4]F,, z2 |]

